X: 19
T:Kettle Drum
M:4/4
L:1/8
Q:120
K:D
fgag f2 ed  | B2 g2 B2 g2 | fgag f2 ed  | B2 g2 e4 :||
fgab a3 b | a3 b a3 f | ga b2 b3 a | b4-bdga | bagf efge | f4 B4 | G2 B2
 B2 g2 | e4 :||
